_site/images/homepage/logos/azure-large.svg

<svg fill="none" height="26" viewBox="0 0 33 26" width="33" xmlns="http://www.w3.org/2000/svg"><path clip-rule="evenodd" d="m8.20348 8.33008 9.61342-8.33008-10.42026 23.0433h-7.39664zm6.78872 5.17382 4.1027-11.55492 13.5145 24.05102h-25.01185l15.26125-2.6202z" fill="#0072c6" fill-rule="evenodd"/></svg>

<svg width="33" height="26" viewBox="0 0 33 26" fill="none" xmlns="http://www.w3.org/2000/svg">
<path fill-rule="evenodd" clip-rule="evenodd" d="M8.20348 8.33008L17.8169 0L7.39664 23.0433H0L8.20348 8.33008ZM14.9922 13.5039L19.0949 1.94898L32.6094 26H7.59755L22.8588 23.3798L14.9922 13.5039Z" fill="#0072C6"/>
</svg>
